; generated by PrusaSlicer 2.4.2 on 2023-07-18 at 21:47:05 UTC


;
;

;
;
; 

; external perimeters extrusion width = 0.45mm
; perimeters extrusion width = 0.45mm
; infill extrusion width = 0.45mm
; solid infill extrusion width = 0.45mm
; top infill extrusion width = 0.40mm
; support material extrusion width = 0.35mm
; first layer extrusion width = 0.42mm

; external perimeters extrusion width = 0.45mm
; perimeters extrusion width = 0.45mm
; infill extrusion width = 0.45mm
; solid infill extrusion width = 0.45mm
; top infill extrusion width = 0.40mm
; support material extrusion width = 0.35mm
; first layer extrusion width = 0.42mm

M73 P0 R330
M201 X1250 Y1250 Z400 E5000 ; sets maximum accelerations, mm/sec^2
M203 X180 Y180 Z12 E80 ; sets maximum feedrates, mm / sec
M204 P1250 R1250 T1250 ; sets acceleration (P, T) and retract acceleration (R), mm/sec^2
M205 X8.00 Y8.00 Z2.00 E10.00 ; sets the jerk limits, mm/sec
M205 S0 T0 ; sets the minimum extruding and travel feed rate, mm/sec
M107
;TYPE:Custom
G90 ; use absolute coordinates
M83 ; extruder relative mode
M104 S170 ; set extruder temp for bed leveling
M140 S85 ; set bed temp
M109 R170 ; wait for bed leveling temp
M190 S85 ; wait for bed temp
G28 ; home all without mesh bed level
G29 ; mesh bed leveling 
M104 S230 ; set extruder temp
G92 E0.0
G1 Y-2.0 X179 F2400
G1 Z3 F720
M109 S230 ; wait for extruder temp

; intro line
G1 X170 F1000
G1 Z0.2 F720
G1 X110.0 E8.0 F900
G1 X40.0 E10.0 F700
G92 E0.0

M221 S95 ; set flow
G21 ; set units to millimeters
G90 ; use absolute coordinates
M83 ; use relative distances for extrusion
M900 K0.2 ; Filament gcode
M107
;LAYER_CHANGE
;Z:0.2
;HEIGHT:0.2
;BEFORE_LAYER_CHANGE
G92 E0.0
;0.2


G1 E-3.2 F2400
G1 Z.2 F9000
;AFTER_LAYER_CHANGE
;0.2
G1 Z.4
G1 X53.346 Y37.199
G1 Z.2
G1 E3.2 F1500
M204 S800
;TYPE:Skirt/Brim
;WIDTH:0.42
G1 F1200
G1 X76.23 Y4.382 E1.25443
G1 X77.299 Y3.534 E.04278
G1 X78.18 Y3.364 E.02813
G1 X172.34 Y3.364 E2.95232
G1 X173.647 Y3.756 E.04278
G1 X174.523 Y4.802 E.04278
G1 X174.717 Y5.741 E.03008
G1 X174.717 Y70.821 E2.04054
G1 X174.29 Y72.181 E.04469
G1 X101.238 Y176.942 E4.00444
G1 X100.17 Y177.79 E.04278
G1 X99.288 Y177.959 E.02813
G1 X5.128 Y177.959 E2.95232
G1 X3.821 Y177.568 E.04278
M73 P0 R329
G1 X2.945 Y176.522 E.04278
G1 X2.751 Y175.582 E.03008
G1 X2.751 Y110.502 E2.04054
G1 X3.179 Y109.143 E.04469
G1 X53.312 Y37.248 E2.74813
M204 S1250
G1 E-2.24 F2400
;WIPE_START
G1 F7200
G1 X54.959 Y34.886 E-.912
;WIPE_END
G1 E-.048 F2400
G1 Z.4 F9000
G1 X93.854 Y118.166
G1 Z.2
G1 E3.2 F1500
M204 S800
;TYPE:Perimeter
G1 F1200
G1 X93.92 Y118.128 E.00237
G1 X94.442 Y117.953 E.01729
G1 X94.989 Y117.884 E.01729
G1 X95.539 Y117.925 E.01729
G1 X96.07 Y118.075 E.01729
G1 X96.561 Y118.326 E.01729
G1 X96.992 Y118.67 E.01729
G1 X97.346 Y119.092 E.01729
G1 X97.61 Y119.577 E.01729
G1 X97.772 Y120.102 E.01723
G1 X97.826 Y120.616 E.01622
G1 X97.794 Y121.074 E.01437
G1 X97.661 Y121.599 E.01701
G1 X97.421 Y122.096 E.01729
G1 X97.088 Y122.536 E.01729
G1 X96.675 Y122.9 E.01729
G1 X96.197 Y123.176 E.01729
G1 X95.675 Y123.352 E.01729
G1 X95.128 Y123.42 E.01729
G1 X94.578 Y123.379 E.01729
G1 X94.047 Y123.23 E.01729
G1 X93.567 Y122.984 E.01691
G1 X93.218 Y122.719 E.01372
G1 X92.851 Y122.324 E.01691
G1 X92.564 Y121.854 E.01729
G1 X92.375 Y121.335 E.01729
G1 X92.293 Y120.79 E.01729
G1 X92.32 Y120.239 E.01729
G1 X92.456 Y119.705 E.01729
G1 X92.696 Y119.208 E.01729
G1 X93.029 Y118.769 E.01729
G1 X93.442 Y118.404 E.01729
G1 X93.802 Y118.196 E.01304
M204 S1250
G1 X94.043 Y118.492 F9000
M204 S800
G1 F1200
G1 X94.527 Y118.322 E.01608
G1 X94.999 Y118.263 E.01492
G1 X95.474 Y118.298 E.01492
G1 X95.932 Y118.427 E.01492
G1 X96.355 Y118.644 E.01492
G1 X96.727 Y118.941 E.01492
G1 X97.033 Y119.306 E.01492
G1 X97.261 Y119.724 E.01492
G1 X97.401 Y120.177 E.01488
G1 X97.447 Y120.623 E.01405
G1 X97.421 Y121.014 E.01228
G1 X97.304 Y121.47 E.01475
G1 X97.098 Y121.898 E.01492
G1 X96.811 Y122.278 E.01492
G1 X96.454 Y122.593 E.01492
G1 X96.042 Y122.831 E.01492
G1 X95.59 Y122.982 E.01492
G1 X95.118 Y123.042 E.01492
G1 X94.643 Y123.006 E.01492
G1 X94.185 Y122.877 E.01492
G1 X93.768 Y122.663 E.01469
G1 X93.472 Y122.439 E.01166
G1 X93.153 Y122.095 E.01469
G1 X92.905 Y121.689 E.01492
G1 X92.742 Y121.242 E.01492
G1 X92.671 Y120.771 E.01492
G1 X92.695 Y120.296 E.01492
G1 X92.813 Y119.835 E.01492
G1 X93.019 Y119.406 E.01492
G1 X93.306 Y119.027 E.01492
G1 X93.663 Y118.712 E.01492
G1 X93.991 Y118.522 E.01186
M204 S1250
G1 X94.231 Y118.819 F9000
M204 S800
;TYPE:External perimeter
G1 F1200
G1 X94.611 Y118.691 E.01256
G1 X95.008 Y118.642 E.01256
G1 X95.408 Y118.672 E.01256
G1 X95.793 Y118.78 E.01256
G1 X96.15 Y118.963 E.01256
G1 X96.463 Y119.212 E.01256
G1 X96.72 Y119.519 E.01256
G1 X96.912 Y119.871 E.01256
G1 X97.03 Y120.253 E.01254
G1 X97.069 Y120.63 E.01187
G1 X97.047 Y120.954 E.01019
G1 X96.948 Y121.34 E.0125
G1 X96.775 Y121.701 E.01256
G1 X96.533 Y122.02 E.01256
G1 X96.232 Y122.285 E.01256
G1 X95.886 Y122.485 E.01256
G1 X95.506 Y122.613 E.01256
G1 X95.109 Y122.663 E.01256
G1 X94.709 Y122.633 E.01256
G1 X94.324 Y122.524 E.01256
G1 X93.97 Y122.343 E.01247
G1 X93.726 Y122.158 E.00959
G1 X93.455 Y121.866 E.01247
G1 X93.247 Y121.525 E.01256
G1 X93.11 Y121.148 E.01256
G1 X93.05 Y120.752 E.01256
G1 X93.07 Y120.352 E.01256
G1 X93.169 Y119.964 E.01256
G1 X93.342 Y119.604 E.01256
G1 X93.584 Y119.284 E.01256
G1 X93.885 Y119.019 E.01256
G1 X94.179 Y118.849 E.01068
M204 S1250
G1 X94.271 Y118.421 F9000
G1 E-2.24 F2400
;WIPE_START
G1 F7200
G1 X94.611 Y118.691 E-.1455
G1 X95.008 Y118.642 E-.12682
G1 X95.408 Y118.672 E-.12682
G1 X95.793 Y118.78 E-.12682
G1 X96.15 Y118.963 E-.12682
G1 X96.463 Y119.212 E-.12682
G1 X96.72 Y119.519 E-.12682
G1 X96.729 Y119.535 E-.00558
;WIPE_END
G1 E-.048 F2400
G1 Z.4 F9000
G1 X12.503 Y171.195
G1 Z.2
G1 E3.2 F1500
M204 S800
;TYPE:Perimeter
G1 F1200
G1 X12.409 Y170.575 E.01966
G1 X12.195 Y169.986 E.01965
G1 X11.868 Y169.451 E.01966
G1 X11.453 Y169.004 E.01913
G1 X11.051 Y168.7 E.01579
G1 X10.509 Y168.422 E.01913
G1 X9.905 Y168.252 E.01965
G1 X9.28 Y168.205 E.01966
G1 X8.658 Y168.283 E.01965
G1 X8.064 Y168.483 E.01966
G1 X7.521 Y168.796 E.01965
G1 X7.051 Y169.211 E.01965
G1 X6.824 Y169.511 E.01178
G1 X6.67 Y169.459 E.0051
G1 X6.67 Y116.401 E1.66359
G1 X7.16 Y116.986 E.02394
G1 X7.651 Y117.377 E.01966
G1 X8.208 Y117.663 E.01965
G1 X8.812 Y117.832 E.01965
G1 X9.437 Y117.879 E.01966
G1 X10.059 Y117.801 E.01966
G1 X10.653 Y117.602 E.01966
G1 X11.196 Y117.288 E.01965
G1 X11.666 Y116.873 E.01966
G1 X12.045 Y116.374 E.01966
G1 X12.317 Y115.809 E.01966
G1 X12.471 Y115.201 E.01966
G1 X12.503 Y114.575 E.01965
G1 X12.409 Y113.955 E.01966
G1 X12.195 Y113.366 E.01965
G1 X11.868 Y112.831 E.01965
G1 X11.453 Y112.384 E.01913
G1 X11.207 Y112.198 E.00969
G1 X11.258 Y112.043 E.0051
G1 X97.747 Y112.043 E2.7118
G1 X97.747 Y118.983 E.2176
G1 X97.257 Y118.399 E.02394
G1 X96.766 Y118.008 E.01966
G1 X96.209 Y117.722 E.01966
G1 X95.605 Y117.552 E.01965
G1 X94.98 Y117.505 E.01966
G1 X94.358 Y117.583 E.01966
G1 X93.764 Y117.783 E.01966
G1 X93.221 Y118.096 E.01965
G1 X92.751 Y118.511 E.01966
G1 X92.372 Y119.011 E.01966
G1 X92.1 Y119.576 E.01966
G1 X91.946 Y120.183 E.01966
G1 X91.914 Y120.809 E.01965
G1 X92.008 Y121.429 E.01966
G1 X92.222 Y122.018 E.01966
G1 X92.549 Y122.553 E.01965
G1 X92.964 Y123 E.01913
G1 X93.366 Y123.304 E.01579
G1 X93.908 Y123.583 E.01913
G1 X94.512 Y123.752 E.01966
G1 X95.137 Y123.799 E.01965
G1 X95.759 Y123.721 E.01966
G1 X96.353 Y123.522 E.01966
G1 X96.896 Y123.208 E.01965
G1 X97.366 Y122.793 E.01966
G1 X97.593 Y122.494 E.01178
G1 X97.747 Y122.546 E.0051
G1 X97.747 Y169.683 E1.47798
G1 X97.257 Y169.099 E.02394
G1 X96.766 Y168.708 E.01966
G1 X96.209 Y168.422 E.01966
G1 X95.605 Y168.252 E.01965
G1 X94.98 Y168.205 E.01966
G1 X94.358 Y168.283 E.01966
G1 X93.764 Y168.483 E.01965
G1 X93.221 Y168.796 E.01965
G1 X92.751 Y169.211 E.01966
G1 X92.372 Y169.711 E.01966
G1 X92.1 Y170.275 E.01965
G1 X91.946 Y170.883 E.01966
G1 X91.914 Y171.509 E.01965
G1 X92.008 Y172.129 E.01966
G1 X92.222 Y172.718 E.01966
G1 X92.549 Y173.253 E.01965
G1 X92.975 Y173.712 E.01965
G1 X93.214 Y173.884 E.00922
G1 X93.164 Y174.041 E.00517
G1 X11.046 Y174.041 E2.57475
G1 X11.666 Y173.493 E.02595
G1 X12.045 Y172.994 E.01966
G1 X12.317 Y172.429 E.01966
G1 X12.471 Y171.821 E.01966
G1 X12.5 Y171.255 E.01777
M204 S1250
G1 E-2.24 F2400
;WIPE_START
G1 F7200
G1 X12.409 Y170.575 E-.21717
G1 X12.195 Y169.986 E-.19851
G1 X11.868 Y169.451 E-.19851
G1 X11.453 Y169.004 E-.19318
G1 X11.19 Y168.805 E-.10463
;WIPE_END
G1 E-.048 F2400
G1 Z.4 F9000
G1 X95.065 Y168.59
G1 Z.2
G1 E3.2 F1500
M204 S800
G1 F1200
G1 X95.539 Y168.625 E.01492
G1 X96.07 Y168.775 E.01729
G1 X96.561 Y169.026 E.01729
G1 X96.992 Y169.37 E.01729
G1 X97.346 Y169.792 E.01729
G1 X97.61 Y170.277 E.01729
G1 X97.772 Y170.802 E.01723
G1 X97.826 Y171.316 E.01622
G1 X97.794 Y171.774 E.01437
G1 X97.661 Y172.299 E.01701
G1 X97.421 Y172.796 E.01729
G1 X97.088 Y173.236 E.01729
G1 X96.675 Y173.6 E.01729
G1 X96.197 Y173.876 E.01729
G1 X95.675 Y174.052 E.01729
G1 X95.128 Y174.12 E.01729
G1 X94.587 Y174.08 E.01701
G1 X94.143 Y173.964 E.01437
G1 X93.672 Y173.749 E.01622
G1 X93.226 Y173.428 E.01723
G1 X92.851 Y173.024 E.01729
G1 X92.564 Y172.554 E.01729
G1 X92.375 Y172.035 E.01729
G1 X92.293 Y171.49 E.01729
G1 X92.32 Y170.939 E.01729
G1 X92.456 Y170.405 E.01729
G1 X92.696 Y169.908 E.01729
G1 X93.029 Y169.469 E.01729
G1 X93.442 Y169.104 E.01729
G1 X93.92 Y168.828 E.01729
G1 X94.442 Y168.653 E.01729
G1 X95.005 Y168.585 E.01777
M204 S1250
G1 X95.037 Y168.966 F9000
M204 S800
G1 F1200
G1 X95.474 Y168.998 E.01374
G1 X95.932 Y169.127 E.01492
G1 X96.355 Y169.344 E.01492
G1 X96.727 Y169.641 E.01492
G1 X97.033 Y170.006 E.01492
G1 X97.261 Y170.424 E.01492
G1 X97.401 Y170.877 E.01488
G1 X97.447 Y171.323 E.01405
G1 X97.421 Y171.714 E.01228
G1 X97.304 Y172.17 E.01475
G1 X97.098 Y172.598 E.01492
G1 X96.811 Y172.978 E.01492
G1 X96.454 Y173.293 E.01492
G1 X96.041 Y173.531 E.01492
G1 X95.59 Y173.682 E.01492
G1 X95.118 Y173.742 E.01492
G1 X94.649 Y173.706 E.01475
G1 X94.27 Y173.607 E.01228
G1 X93.862 Y173.421 E.01405
G1 X93.477 Y173.144 E.01489
G1 X93.153 Y172.795 E.01492
G1 X92.905 Y172.389 E.01492
G1 X92.742 Y171.942 E.01492
G1 X92.671 Y171.471 E.01492
G1 X92.695 Y170.996 E.01492
G1 X92.813 Y170.535 E.01492
G1 X93.019 Y170.106 E.01492
G1 X93.306 Y169.727 E.01492
G1 X93.663 Y169.412 E.01492
G1 X94.075 Y169.174 E.01492
G1 X94.527 Y169.022 E.01492
G1 X94.977 Y168.966 E.01423
M204 S1250
G1 X95.008 Y169.342 F9000
M204 S800
;TYPE:External perimeter
G1 F1200
G1 X95.408 Y169.372 E.01256
G1 X95.793 Y169.48 E.01256
G1 X96.15 Y169.663 E.01256
G1 X96.463 Y169.912 E.01256
G1 X96.72 Y170.219 E.01256
G1 X96.912 Y170.571 E.01256
G1 X97.03 Y170.953 E.01254
G1 X97.069 Y171.33 E.01187
G1 X97.047 Y171.654 E.01019
G1 X96.948 Y172.04 E.0125
G1 X96.775 Y172.401 E.01256
G1 X96.533 Y172.72 E.01256
G1 X96.232 Y172.985 E.01256
G1 X95.886 Y173.185 E.01256
G1 X95.506 Y173.313 E.01256
G1 X95.109 Y173.363 E.01256
G1 X94.711 Y173.333 E.0125
G1 X94.397 Y173.251 E.01019
G1 X94.053 Y173.094 E.01187
G1 X93.728 Y172.86 E.01254
G1 X93.455 Y172.566 E.01256
G1 X93.247 Y172.225 E.01256
G1 X93.11 Y171.848 E.01256
G1 X93.05 Y171.452 E.01256
G1 X93.07 Y171.052 E.01256
G1 X93.169 Y170.664 E.01256
G1 X93.342 Y170.304 E.01256
G1 X93.584 Y169.984 E.01256
G1 X93.885 Y169.719 E.01256
G1 X94.231 Y169.519 E.01256
G1 X94.611 Y169.391 E.01256
G1 X94.949 Y169.349 E.01068
M204 S1250
G1 X95.2 Y168.99 F9000
G1 E-2.24 F2400
;WIPE_START
G1 F7200
G1 X95.408 Y169.372 E-.1455
G1 X95.793 Y169.48 E-.12682
G1 X96.15 Y169.663 E-.12682
G1 X96.463 Y169.912 E-.12682
G1 X96.72 Y170.219 E-.12682
G1 X96.912 Y170.571 E-.12682
G1 X97.03 Y170.953 E-.12668
G1 X97.031 Y170.971 E-.00573
;WIPE_END
G1 E-.048 F2400
G1 Z.4 F9000
G1 X97.593 Y173.194
G1 Z.2
G1 E3.2 F1500
M204 S800
;TYPE:Perimeter
G1 F1200
G1 X97.747 Y173.246 E.0051
G1 X97.747 Y174.041 E.02494
G1 X96.746 Y174.041 E.0314
G1 X97.366 Y173.493 E.02595
G1 X97.557 Y173.242 E.0099
M204 S1250
G1 E-2.24 F2400
;WIPE_START
G1 F7200
G1 X97.747 Y173.246 E-.06031
G1 X97.747 Y174.041 E-.25187
G1 X96.746 Y174.041 E-.31718
G1 X97.366 Y173.493 E-.26206
G1 X97.405 Y173.442 E-.02058
;WIPE_END
G1 E-.048 F2400
G1 Z.4 F9000
G1 X7.516 Y173.889
G1 Z.2
G1 E3.2 F1500
M204 S800
G1 F1200
G1 X7.463 Y174.041 E.00503
G1 X6.67 Y174.041 E.02488
G1 X6.67 Y173.021 E.03198
G1 X7.16 Y173.606 E.02394
G1 X7.469 Y173.852 E.01239
M204 S1250
G1 E-2.24 F2400
;WIPE_START
G1 F7200
G1 X7.463 Y174.041 E-.05986
G1 X6.67 Y174.041 E-.25126
G1 X6.67 Y173.021 E-.32301
G1 X7.16 Y173.606 E-.24175
G1 X7.25 Y173.677 E-.03612
;WIPE_END
G1 E-.048 F2400
G1 Z.4 F9000
G1 X12.12 Y171.29
G1 Z.2
G1 E3.2 F1500
M204 S800
G1 F1200
G1 X12.097 Y171.765 E.01492
G1 X11.961 Y172.299 E.01729
G1 X11.721 Y172.796 E.01729
G1 X11.388 Y173.236 E.01729
G1 X10.975 Y173.6 E.01729
G1 X10.497 Y173.876 E.01729
G1 X9.975 Y174.052 E.01729
G1 X9.428 Y174.12 E.01729
G1 X8.878 Y174.079 E.01729
G1 X8.347 Y173.93 E.01729
G1 X7.856 Y173.678 E.01729
G1 X7.425 Y173.334 E.01729
G1 X7.071 Y172.912 E.01729
G1 X6.807 Y172.428 E.01729
G1 X6.645 Y171.903 E.01723
G1 X6.591 Y171.388 E.01622
G1 X6.623 Y170.931 E.01437
G1 X6.756 Y170.405 E.01701
G1 X6.996 Y169.908 E.01729
G1 X7.329 Y169.469 E.01729
G1 X7.742 Y169.104 E.01729
G1 X8.22 Y168.828 E.01729
G1 X8.742 Y168.653 E.01729
G1 X9.289 Y168.584 E.01729
G1 X9.839 Y168.625 E.01729
G1 X10.37 Y168.775 E.01729
G1 X10.85 Y169.021 E.01691
G1 X11.199 Y169.285 E.01372
G1 X11.566 Y169.68 E.01691
G1 X11.853 Y170.151 E.01729
G1 X12.042 Y170.669 E.01729
G1 X12.123 Y171.23 E.01777
M204 S1250
G1 X11.744 Y171.271 F9000
M204 S800
G1 F1200
G1 X11.722 Y171.708 E.01374
G1 X11.604 Y172.17 E.01492
G1 X11.398 Y172.598 E.01492
G1 X11.111 Y172.978 E.01492
G1 X10.754 Y173.293 E.01492
G1 X10.342 Y173.531 E.01492
G1 X9.89 Y173.682 E.01492
G1 X9.418 Y173.742 E.01492
G1 X8.943 Y173.706 E.01492
G1 X8.485 Y173.577 E.01492
G1 X8.062 Y173.36 E.01492
G1 X7.69 Y173.063 E.01492
G1 X7.384 Y172.699 E.01492
G1 X7.156 Y172.281 E.01492
G1 X7.016 Y171.827 E.01488
G1 X6.97 Y171.381 E.01405
G1 X6.996 Y170.991 E.01228
G1 X7.113 Y170.535 E.01475
G1 X7.319 Y170.106 E.01492
G1 X7.606 Y169.727 E.01492
G1 X7.963 Y169.412 E.01492
G1 X8.375 Y169.174 E.01492
G1 X8.827 Y169.022 E.01492
G1 X9.299 Y168.963 E.01492
G1 X9.774 Y168.998 E.01492
G1 X10.232 Y169.127 E.01492
G1 X10.649 Y169.341 E.01469
G1 X10.945 Y169.566 E.01166
G1 X11.264 Y169.909 E.01469
G1 X11.512 Y170.315 E.01492
G1 X11.675 Y170.762 E.01492
G1 X11.742 Y171.211 E.01423
M204 S1250
G1 X11.367 Y171.252 F9000
M204 S800
;TYPE:External perimeter
G1 F1200
G1 X11.347 Y171.652 E.01256
G1 X11.248 Y172.04 E.01256
G1 X11.075 Y172.401 E.01256
G1 X10.833 Y172.72 E.01256
G1 X10.532 Y172.985 E.01256
G1 X10.186 Y173.185 E.01256
G1 X9.806 Y173.313 E.01256
G1 X9.409 Y173.363 E.01256
G1 X9.009 Y173.333 E.01256
G1 X8.624 Y173.224 E.01256
G1 X8.267 Y173.042 E.01256
G1 X7.954 Y172.792 E.01256
G1 X7.697 Y172.485 E.01256
G1 X7.505 Y172.133 E.01256
G1 X7.387 Y171.751 E.01254
G1 X7.348 Y171.375 E.01187
G1 X7.37 Y171.051 E.01019
G1 X7.469 Y170.664 E.0125
G1 X7.642 Y170.304 E.01256
G1 X7.884 Y169.984 E.01256
G1 X8.185 Y169.719 E.01256
G1 X8.531 Y169.519 E.01256
G1 X8.911 Y169.391 E.01256
G1 X9.308 Y169.342 E.01256
G1 X9.708 Y169.372 E.01256
G1 X10.093 Y169.48 E.01256
G1 X10.447 Y169.662 E.01247
G1 X10.691 Y169.846 E.00959
G1 X10.962 Y170.138 E.01247
G1 X11.17 Y170.48 E.01256
G1 X11.307 Y170.856 E.01256
G1 X11.358 Y171.193 E.01068
M204 S1250
G1 X11.723 Y171.434 F9000
G1 E-2.24 F2400
;WIPE_START
G1 F7200
G1 X11.347 Y171.652 E-.14549
G1 X11.248 Y172.04 E-.12682
G1 X11.075 Y172.401 E-.12682
G1 X10.833 Y172.72 E-.12682
G1 X10.532 Y172.985 E-.12682
G1 X10.186 Y173.185 E-.12682
G1 X9.806 Y173.313 E-.12682
G1 X9.788 Y173.315 E-.00559
;WIPE_END
G1 E-.048 F2400
G1 Z.4 F9000
G1 X6.67 Y112.043
G1 Z.2
G1 E3.2 F1500
M204 S800
;TYPE:Perimeter
G1 F1200
G1 X7.671 Y112.043 E.03141
G1 X7.051 Y112.591 E.02595
G1 X6.824 Y112.891 E.01178
G1 X6.67 Y112.839 E.0051
G1 X6.67 Y112.103 E.02306
M204 S1250
G1 E-2.24 F2400
;WIPE_START
G1 F7200
G1 X7.671 Y112.043 E-.31775
