; generated by PrusaSlicer 2.4.2 on 2023-07-19 at 18:51:38 UTC


;
;

;
;
; 

; external perimeters extrusion width = 0.45mm
; perimeters extrusion width = 0.45mm
; infill extrusion width = 0.45mm
; solid infill extrusion width = 0.45mm
; top infill extrusion width = 0.40mm
; support material extrusion width = 0.35mm
; first layer extrusion width = 0.42mm

; external perimeters extrusion width = 0.45mm
; perimeters extrusion width = 0.45mm
; infill extrusion width = 0.45mm
; solid infill extrusion width = 0.45mm
; top infill extrusion width = 0.40mm
; support material extrusion width = 0.35mm
; first layer extrusion width = 0.42mm

M73 P0 R330
M201 X1250 Y1250 Z400 E5000 ; sets maximum accelerations, mm/sec^2
M203 X180 Y180 Z12 E80 ; sets maximum feedrates, mm / sec
M204 P1250 R1250 T1250 ; sets acceleration (P, T) and retract acceleration (R), mm/sec^2
M205 X8.00 Y8.00 Z2.00 E10.00 ; sets the jerk limits, mm/sec
M205 S0 T0 ; sets the minimum extruding and travel feed rate, mm/sec
M107
;TYPE:Custom
G90 ; use absolute coordinates
M83 ; extruder relative mode
M104 S170 ; set extruder temp for bed leveling
M140 S85 ; set bed temp
M109 R170 ; wait for bed leveling temp
M190 S85 ; wait for bed temp
G28 ; home all without mesh bed level
G29 ; mesh bed leveling 
M104 S230 ; set extruder temp
G92 E0.0
G1 Y-2.0 X179 F2400
G1 Z3 F720
M109 S230 ; wait for extruder temp

; intro line
G1 X170 F1000
G1 Z0.2 F720
G1 X110.0 E8.0 F900
G1 X40.0 E10.0 F700
G92 E0.0

M221 S95 ; set flow
G21 ; set units to millimeters
G90 ; use absolute coordinates
M83 ; use relative distances for extrusion
M900 K0.2 ; Filament gcode
M107
;LAYER_CHANGE
;Z:0.2
;HEIGHT:0.2
;BEFORE_LAYER_CHANGE
G92 E0.0
;0.2


G1 E-3.2 F2400
G1 Z.2 F9000
;AFTER_LAYER_CHANGE
;0.2
G1 Z.4
G1 X53.798 Y38.271
G1 Z.2
G1 E3.2 F1500
M204 S800
;TYPE:Skirt/Brim
;WIDTH:0.42
G1 F1200
G1 X76.36 Y6.556 E1.22037
G1 X77.437 Y5.718 E.04278
G1 X78.297 Y5.557 E.02744
G1 X172.457 Y5.557 E2.95232
G1 X173.764 Y5.948 E.04278
G1 X174.641 Y6.994 E.04278
G1 X174.834 Y7.934 E.03008
G1 X174.834 Y73.014 E2.04054
G1 X174.394 Y74.392 E.04535
G1 X100.841 Y177.786 E3.97848
G1 X99.764 Y178.624 E.04278
G1 X98.904 Y178.786 E.02744
G1 X4.744 Y178.786 E2.95232
G1 X3.437 Y178.394 E.04278
G1 X2.56 Y177.348 E.04278
G1 X2.367 Y176.408 E.03008
G1 X2.367 Y111.328 E2.04054
G1 X2.807 Y109.951 E.04535
G1 X53.764 Y38.32 E2.75623
M204 S1250
G1 E-2.24 F2400
;WIPE_START
G1 F7200
G1 X55.433 Y35.974 E-.912
;WIPE_END
G1 E-.048 F2400
G1 Z.4 F9000
G1 X93.607 Y118.93
G1 Z.2
G1 E3.2 F1500
M204 S800
;TYPE:Perimeter
G1 F1200
G1 X94.058 Y118.779 E.01492
G1 X94.605 Y118.71 E.01729
G1 X95.155 Y118.751 E.01729
G1 X95.685 Y118.901 E.01729
G1 X96.176 Y119.152 E.01729
G1 X96.607 Y119.496 E.01729
G1 X96.962 Y119.919 E.01729
G1 X97.225 Y120.403 E.01729
G1 X97.387 Y120.928 E.01723
G1 X97.441 Y121.443 E.01622
G1 X97.41 Y121.9 E.01437
G1 X97.276 Y122.426 E.01701
G1 X97.037 Y122.922 E.01729
G1 X96.704 Y123.362 E.01729
G1 X96.29 Y123.727 E.01729
G1 X95.813 Y124.002 E.01729
G1 X95.29 Y124.178 E.01729
G1 X94.743 Y124.247 E.01729
G1 X94.193 Y124.205 E.01729
G1 X93.662 Y124.056 E.01729
G1 X93.182 Y123.81 E.01691
G1 X92.833 Y123.546 E.01373
G1 X92.467 Y123.15 E.01691
G1 X92.179 Y122.68 E.01729
G1 X91.99 Y122.162 E.01729
G1 X91.908 Y121.616 E.01729
G1 X91.936 Y121.066 E.01729
G1 X92.072 Y120.531 E.01729
G1 X92.311 Y120.035 E.01729
G1 X92.644 Y119.595 E.01729
G1 X93.057 Y119.23 E.01729
G1 X93.55 Y118.95 E.01776
M204 S1250
G1 X93.727 Y119.288 F9000
M204 S800
G1 F1200
G1 X94.142 Y119.148 E.01374
G1 X94.614 Y119.089 E.01492
G1 X95.089 Y119.125 E.01492
G1 X95.547 Y119.254 E.01492
G1 X95.971 Y119.471 E.01492
G1 X96.343 Y119.767 E.01492
G1 X96.649 Y120.132 E.01492
G1 X96.876 Y120.55 E.01492
G1 X97.016 Y121.004 E.01488
G1 X97.063 Y121.449 E.01405
G1 X97.036 Y121.84 E.01228
G1 X96.92 Y122.296 E.01475
G1 X96.713 Y122.725 E.01492
G1 X96.426 Y123.104 E.01492
G1 X96.069 Y123.419 E.01492
G1 X95.657 Y123.657 E.01492
G1 X95.206 Y123.809 E.01492
G1 X94.733 Y123.868 E.01492
G1 X94.259 Y123.832 E.01492
G1 X93.801 Y123.703 E.01492
G1 X93.384 Y123.49 E.01469
G1 X93.087 Y123.265 E.01166
G1 X92.769 Y122.922 E.01469
G1 X92.52 Y122.515 E.01492
G1 X92.358 Y122.068 E.01492
G1 X92.287 Y121.598 E.01492
G1 X92.31 Y121.122 E.01492
G1 X92.428 Y120.661 E.01492
G1 X92.634 Y120.232 E.01492
G1 X92.922 Y119.853 E.01492
G1 X93.279 Y119.538 E.01492
G1 X93.672 Y119.311 E.01422
M204 S1250
G1 X93.847 Y119.645 F9000
M204 S800
;TYPE:External perimeter
G1 F1200
G1 X94.226 Y119.518 E.01256
G1 X94.624 Y119.468 E.01256
G1 X95.023 Y119.498 E.01256
G1 X95.409 Y119.606 E.01256
G1 X95.765 Y119.789 E.01256
G1 X96.078 Y120.039 E.01256
G1 X96.336 Y120.346 E.01256
G1 X96.527 Y120.697 E.01256
G1 X96.645 Y121.08 E.01254
G1 X96.684 Y121.456 E.01187
G1 X96.662 Y121.78 E.01019
G1 X96.564 Y122.166 E.0125
G1 X96.39 Y122.527 E.01256
G1 X96.148 Y122.846 E.01256
G1 X95.848 Y123.111 E.01256
G1 X95.501 Y123.312 E.01256
G1 X95.121 Y123.439 E.01256
G1 X94.724 Y123.489 E.01256
G1 X94.325 Y123.459 E.01256
G1 X93.939 Y123.351 E.01256
G1 X93.585 Y123.169 E.01247
G1 X93.341 Y122.984 E.00959
G1 X93.071 Y122.693 E.01247
G1 X92.862 Y122.351 E.01256
G1 X92.725 Y121.975 E.01256
G1 X92.665 Y121.579 E.01256
G1 X92.685 Y121.179 E.01256
G1 X92.784 Y120.791 E.01256
G1 X92.958 Y120.43 E.01256
G1 X93.2 Y120.111 E.01256
G1 X93.5 Y119.846 E.01256
G1 X93.795 Y119.675 E.01068
M204 S1250
G1 X93.887 Y119.247 F9000
G1 E-2.24 F2400
;WIPE_START
G1 F7200
G1 X94.226 Y119.518 E-.14549
G1 X94.624 Y119.468 E-.12682
G1 X95.023 Y119.498 E-.12682
G1 X95.409 Y119.606 E-.12682
G1 X95.765 Y119.789 E-.12682
G1 X96.078 Y120.039 E-.12682
G1 X96.336 Y120.346 E-.12681
G1 X96.344 Y120.361 E-.00559
;WIPE_END
G1 E-.048 F2400
G1 Z.4 F9000
G1 X9.052 Y118.705
G1 Z.2
G1 E3.2 F1500
M204 S800
;TYPE:Perimeter
G1 F1200
G1 X9.674 Y118.628 E.01966
G1 X10.269 Y118.428 E.01966
G1 X10.811 Y118.114 E.01965
G1 X11.281 Y117.7 E.01965
G1 X11.66 Y117.2 E.01966
G1 X11.932 Y116.635 E.01966
G1 X12.087 Y116.028 E.01966
G1 X12.118 Y115.402 E.01966
G1 X12.025 Y114.782 E.01966
G1 X11.81 Y114.193 E.01966
G1 X11.483 Y113.658 E.01965
G1 X11.057 Y113.198 E.01966
G1 X10.818 Y113.027 E.00922
G1 X10.869 Y112.87 E.00517
G1 X97.363 Y112.87 E2.71196
G1 X97.363 Y119.81 E.2176
G1 X96.872 Y119.225 E.02394
G1 X96.382 Y118.834 E.01966
G1 X95.824 Y118.548 E.01966
G1 X95.221 Y118.378 E.01965
G1 X94.595 Y118.331 E.01966
G1 X93.973 Y118.409 E.01966
G1 X93.379 Y118.609 E.01965
M73 P0 R329
G1 X92.836 Y118.922 E.01965
G1 X92.366 Y119.337 E.01966
G1 X91.988 Y119.837 E.01966
G1 X91.716 Y120.402 E.01966
G1 X91.561 Y121.009 E.01966
G1 X91.53 Y121.635 E.01965
G1 X91.623 Y122.255 E.01965
G1 X91.838 Y122.844 E.01966
G1 X92.164 Y123.379 E.01965
G1 X92.579 Y123.826 E.01913
G1 X92.981 Y124.131 E.01579
G1 X93.524 Y124.409 E.01913
G1 X94.127 Y124.579 E.01966
G1 X94.752 Y124.625 E.01966
G1 X95.374 Y124.548 E.01965
G1 X95.969 Y124.348 E.01966
G1 X96.511 Y124.034 E.01965
G1 X96.981 Y123.62 E.01966
G1 X97.208 Y123.32 E.01178
G1 X97.363 Y123.372 E.0051
G1 X97.363 Y170.51 E1.47798
G1 X96.872 Y169.925 E.02394
G1 X96.382 Y169.534 E.01966
G1 X95.824 Y169.248 E.01966
G1 X95.221 Y169.078 E.01965
G1 X94.595 Y169.031 E.01966
G1 X93.973 Y169.109 E.01966
G1 X93.379 Y169.309 E.01965
G1 X92.836 Y169.622 E.01965
G1 X92.366 Y170.037 E.01966
G1 X91.988 Y170.537 E.01966
G1 X91.716 Y171.102 E.01965
G1 X91.561 Y171.709 E.01966
G1 X91.53 Y172.335 E.01965
G1 X91.623 Y172.955 E.01965
G1 X91.838 Y173.544 E.01966
G1 X92.164 Y174.079 E.01965
G1 X92.591 Y174.539 E.01966
G1 X92.83 Y174.71 E.00922
G1 X92.779 Y174.867 E.00517
G1 X10.661 Y174.867 E2.57475
G1 X11.281 Y174.32 E.02595
G1 X11.66 Y173.82 E.01966
G1 X11.932 Y173.255 E.01966
G1 X12.087 Y172.648 E.01966
G1 X12.118 Y172.022 E.01966
G1 X12.025 Y171.402 E.01966
G1 X11.81 Y170.813 E.01966
G1 X11.483 Y170.278 E.01966
G1 X11.068 Y169.831 E.01913
G1 X10.667 Y169.526 E.01579
G1 X10.124 Y169.248 E.01913
G1 X9.521 Y169.078 E.01966
G1 X8.895 Y169.031 E.01966
G1 X8.273 Y169.109 E.01965
G1 X7.679 Y169.309 E.01966
G1 X7.136 Y169.622 E.01966
G1 X6.666 Y170.037 E.01965
G1 X6.439 Y170.337 E.01178
G1 X6.285 Y170.285 E.0051
G1 X6.285 Y117.227 E1.66359
G1 X6.776 Y117.812 E.02394
G1 X7.266 Y118.203 E.01966
G1 X7.824 Y118.489 E.01965
G1 X8.427 Y118.659 E.01966
G1 X8.992 Y118.701 E.01777
M204 S1250
G1 E-2.24 F2400
;WIPE_START
G1 F7200
G1 X9.674 Y118.628 E-.21717
G1 X10.269 Y118.428 E-.19852
G1 X10.811 Y118.114 E-.19851
G1 X11.281 Y117.7 E-.1985
G1 X11.471 Y117.45 E-.0993
;WIPE_END
G1 E-.048 F2400
G1 Z.4 F9000
G1 X94.68 Y169.416
G1 Z.2
G1 E3.2 F1500
M204 S800
G1 F1200
G1 X95.155 Y169.451 E.01492
G1 X95.685 Y169.601 E.01729
G1 X96.176 Y169.852 E.01729
G1 X96.607 Y170.196 E.01729
G1 X96.962 Y170.619 E.01729
G1 X97.225 Y171.103 E.01729
G1 X97.387 Y171.628 E.01723
G1 X97.441 Y172.143 E.01622
G1 X97.41 Y172.6 E.01437
G1 X97.276 Y173.126 E.01701
G1 X97.037 Y173.622 E.01729
G1 X96.704 Y174.062 E.01729
G1 X96.29 Y174.427 E.01729
G1 X95.813 Y174.702 E.01729
G1 X95.29 Y174.878 E.01729
G1 X94.752 Y174.946 E.01701
G1 X94.294 Y174.92 E.01437
G1 X93.79 Y174.802 E.01622
G1 X93.289 Y174.577 E.01723
G1 X92.842 Y174.255 E.01729
G1 X92.467 Y173.85 E.01729
G1 X92.179 Y173.38 E.01729
G1 X91.99 Y172.862 E.01729
G1 X91.908 Y172.316 E.01729
G1 X91.936 Y171.766 E.01729
G1 X92.072 Y171.231 E.01729
G1 X92.311 Y170.735 E.01729
G1 X92.644 Y170.295 E.01729
G1 X93.057 Y169.93 E.01729
G1 X93.535 Y169.654 E.01729
G1 X94.058 Y169.479 E.01729
G1 X94.62 Y169.411 E.01777
M204 S1250
G1 X94.652 Y169.792 F9000
M204 S800
G1 F1200
G1 X95.089 Y169.825 E.01374
G1 X95.547 Y169.954 E.01492
G1 X95.971 Y170.171 E.01492
G1 X96.343 Y170.467 E.01492
G1 X96.649 Y170.832 E.01492
G1 X96.876 Y171.25 E.01492
G1 X97.016 Y171.704 E.01489
G1 X97.063 Y172.149 E.01404
G1 X97.036 Y172.54 E.01228
G1 X96.92 Y172.996 E.01475
G1 X96.713 Y173.425 E.01492
G1 X96.426 Y173.804 E.01492
G1 X96.069 Y174.119 E.01492
G1 X95.657 Y174.357 E.01492
G1 X95.206 Y174.509 E.01492
G1 X94.739 Y174.567 E.01475
G1 X94.348 Y174.545 E.01228
G1 X93.912 Y174.444 E.01405
G1 X93.479 Y174.248 E.01488
G1 X93.092 Y173.97 E.01492
G1 X92.769 Y173.622 E.01492
G1 X92.52 Y173.215 E.01492
G1 X92.358 Y172.768 E.01492
G1 X92.287 Y172.298 E.01492
G1 X92.31 Y171.822 E.01492
G1 X92.428 Y171.361 E.01492
G1 X92.634 Y170.932 E.01492
G1 X92.922 Y170.553 E.01492
G1 X93.279 Y170.238 E.01492
G1 X93.691 Y170 E.01492
G1 X94.142 Y169.848 E.01492
G1 X94.592 Y169.792 E.01423
M204 S1250
G1 X94.624 Y170.168 F9000
M204 S800
;TYPE:External perimeter
G1 F1200
G1 X95.023 Y170.198 E.01256
G1 X95.409 Y170.306 E.01256
G1 X95.765 Y170.489 E.01256
G1 X96.078 Y170.739 E.01256
G1 X96.336 Y171.046 E.01256
G1 X96.527 Y171.397 E.01256
G1 X96.645 Y171.78 E.01254
G1 X96.684 Y172.156 E.01187
G1 X96.662 Y172.48 E.01019
G1 X96.564 Y172.866 E.0125
G1 X96.39 Y173.227 E.01256
G1 X96.148 Y173.546 E.01256
G1 X95.848 Y173.811 E.01256
G1 X95.501 Y174.012 E.01256
G1 X95.121 Y174.139 E.01256
G1 X94.726 Y174.189 E.0125
G1 X94.402 Y174.17 E.01019
G1 X94.033 Y174.085 E.01187
G1 X93.668 Y173.92 E.01254
G1 X93.343 Y173.686 E.01256
G1 X93.071 Y173.393 E.01256
G1 X92.862 Y173.051 E.01256
G1 X92.725 Y172.675 E.01256
G1 X92.665 Y172.279 E.01256
G1 X92.685 Y171.879 E.01256
G1 X92.784 Y171.491 E.01256
G1 X92.958 Y171.13 E.01256
G1 X93.2 Y170.811 E.01256
G1 X93.5 Y170.546 E.01256
G1 X93.847 Y170.345 E.01256
G1 X94.226 Y170.218 E.01256
G1 X94.564 Y170.175 E.01068
M204 S1250
G1 X94.815 Y169.817 F9000
G1 E-2.24 F2400
;WIPE_START
G1 F7200
G1 X95.023 Y170.198 E-.1455
G1 X95.409 Y170.306 E-.12682
G1 X95.765 Y170.489 E-.12682
G1 X96.078 Y170.739 E-.12682
G1 X96.336 Y171.046 E-.12682
G1 X96.527 Y171.397 E-.12682
G1 X96.645 Y171.78 E-.12668
G1 X96.647 Y171.798 E-.00572
;WIPE_END
G1 E-.048 F2400
G1 Z.4 F9000
G1 X97.208 Y174.02
G1 Z.2
G1 E3.2 F1500
M204 S800
;TYPE:Perimeter
G1 F1200
G1 X97.363 Y174.072 E.0051
G1 X97.363 Y174.867 E.02494
G1 X96.361 Y174.867 E.0314
G1 X96.982 Y174.32 E.02595
G1 X97.172 Y174.068 E.0099
M204 S1250
G1 E-2.24 F2400
;WIPE_START
G1 F7200
G1 X97.363 Y174.072 E-.06031
G1 X97.363 Y174.867 E-.25187
G1 X96.361 Y174.867 E-.31718
G1 X96.982 Y174.32 E-.26206
G1 X97.021 Y174.268 E-.02058
;WIPE_END
G1 E-.048 F2400
G1 Z.4 F9000
G1 X7.132 Y174.716
G1 Z.2
G1 E3.2 F1500
M204 S800
G1 F1200
G1 X7.079 Y174.867 E.00503
G1 X6.285 Y174.867 E.02488
G1 X6.285 Y173.847 E.03198
G1 X6.776 Y174.432 E.02394
G1 X7.085 Y174.678 E.01239
M204 S1250
G1 E-2.24 F2400
;WIPE_START
G1 F7200
G1 X7.079 Y174.867 E-.05986
G1 X6.285 Y174.867 E-.25126
G1 X6.285 Y173.847 E-.32301
G1 X6.776 Y174.432 E-.24175
G1 X6.865 Y174.503 E-.03612
;WIPE_END
G1 E-.048 F2400
G1 Z.4 F9000
G1 X11.736 Y172.116
G1 Z.2
G1 E3.2 F1500
M204 S800
G1 F1200
G1 X11.712 Y172.591 E.01492
G1 X11.576 Y173.126 E.01729
G1 X11.337 Y173.622 E.01729
G1 X11.004 Y174.062 E.01729
G1 X10.59 Y174.427 E.01729
G1 X10.113 Y174.702 E.01729
G1 X9.59 Y174.878 E.01729
G1 X9.043 Y174.947 E.01729
G1 X8.493 Y174.905 E.01729
G1 X7.962 Y174.756 E.01729
G1 X7.472 Y174.505 E.01729
G1 X7.04 Y174.161 E.01729
G1 X6.686 Y173.738 E.01729
G1 X6.422 Y173.254 E.01729
G1 X6.26 Y172.729 E.01723
G1 X6.207 Y172.214 E.01622
G1 X6.238 Y171.757 E.01437
G1 X6.372 Y171.231 E.01701
G1 X6.611 Y170.735 E.01729
G1 X6.944 Y170.295 E.01729
G1 X7.357 Y169.93 E.01729
G1 X7.835 Y169.654 E.01729
G1 X8.358 Y169.479 E.01729
G1 X8.905 Y169.41 E.01729
G1 X9.455 Y169.451 E.01729
G1 X9.986 Y169.601 E.01729
G1 X10.465 Y169.847 E.01691
G1 X10.814 Y170.111 E.01373
G1 X11.181 Y170.507 E.01691
G1 X11.469 Y170.977 E.01729
G1 X11.657 Y171.495 E.01729
G1 X11.739 Y172.056 E.01776
M204 S1250
G1 X11.359 Y172.097 F9000
M204 S800
G1 F1200
G1 X11.337 Y172.535 E.01374
G1 X11.22 Y172.996 E.01492
G1 X11.013 Y173.425 E.01492
G1 X10.726 Y173.804 E.01492
G1 X10.369 Y174.119 E.01492
G1 X9.957 Y174.357 E.01492
G1 X9.506 Y174.509 E.01492
G1 X9.033 Y174.568 E.01492
G1 X8.559 Y174.532 E.01492
G1 X8.101 Y174.403 E.01492
G1 X7.677 Y174.186 E.01492
G1 X7.305 Y173.889 E.01492
G1 X6.999 Y173.525 E.01492
G1 X6.771 Y173.107 E.01492
G1 X6.632 Y172.653 E.01489
G1 X6.585 Y172.208 E.01405
G1 X6.612 Y171.817 E.01228
G1 X6.728 Y171.361 E.01475
G1 X6.934 Y170.932 E.01492
G1 X7.222 Y170.553 E.01492
G1 X7.579 Y170.238 E.01492
G1 X7.991 Y170 E.01492
G1 X8.442 Y169.848 E.01492
G1 X8.914 Y169.789 E.01492
G1 X9.389 Y169.825 E.01492
G1 X9.847 Y169.954 E.01492
G1 X10.264 Y170.167 E.01469
G1 X10.56 Y170.392 E.01166
G1 X10.879 Y170.735 E.01469
G1 X11.127 Y171.141 E.01492
G1 X11.29 Y171.589 E.01492
G1 X11.358 Y172.037 E.01422
M204 S1250
G1 X10.982 Y172.078 F9000
M204 S800
;TYPE:External perimeter
G1 F1200
G1 X10.963 Y172.478 E.01256
G1 X10.864 Y172.866 E.01256
G1 X10.69 Y173.227 E.01256
G1 X10.448 Y173.546 E.01256
G1 X10.148 Y173.811 E.01256
G1 X9.801 Y174.012 E.01256
G1 X9.421 Y174.139 E.01256
G1 X9.024 Y174.189 E.01256
G1 X8.625 Y174.159 E.01256
G1 X8.239 Y174.051 E.01256
G1 X7.883 Y173.868 E.01256
G1 X7.57 Y173.618 E.01256
G1 X7.312 Y173.311 E.01256
G1 X7.121 Y172.96 E.01256
G1 X7.003 Y172.577 E.01254
G1 X6.964 Y172.201 E.01187
G1 X6.986 Y171.877 E.01019
G1 X7.084 Y171.491 E.0125
G1 X7.258 Y171.13 E.01256
G1 X7.5 Y170.811 E.01256
G1 X7.8 Y170.546 E.01256
G1 X8.147 Y170.345 E.01256
G1 X8.526 Y170.218 E.01256
G1 X8.924 Y170.168 E.01256
G1 X9.323 Y170.198 E.01256
G1 X9.709 Y170.306 E.01256
G1 X10.063 Y170.488 E.01247
G1 X10.306 Y170.673 E.00959
G1 X10.577 Y170.964 E.01247
G1 X10.786 Y171.306 E.01256
G1 X10.923 Y171.682 E.01256
G1 X10.974 Y172.019 E.01068
M204 S1250
G1 X11.338 Y172.261 F9000
G1 E-2.24 F2400
;WIPE_START
G1 F7200
G1 X10.963 Y172.478 E-.14549
G1 X10.864 Y172.866 E-.12683
G1 X10.69 Y173.227 E-.12682
G1 X10.448 Y173.546 E-.12682
G1 X10.148 Y173.811 E-.12681
G1 X9.801 Y174.012 E-.12682
G1 X9.421 Y174.139 E-.12682
G1 X9.404 Y174.141 E-.00559
;WIPE_END
G1 E-.048 F2400
G1 Z.4 F9000
G1 X6.285 Y112.87
G1 Z.2
G1 E3.2 F1500
M204 S800
;TYPE:Perimeter
G1 F1200
G1 X7.287 Y112.87 E.03141
G1 X6.666 Y113.417 E.02595
G1 X6.439 Y113.717 E.01178
G1 X6.285 Y113.665 E.0051
G1 X6.285 Y112.93 E.02306
M204 S1250
G1 E-2.24 F2400
;WIPE_START
G1 F7200
G1 X7.287 Y112.87 E-.31775
G1 X6.666 Y113.417 E-.26206
